icons/tag-check.svg

<svg xmlns="http://www.w3.org/2000/svg" width="24" height="24" viewBox="0 0 24 24">
  <path d="M13,2 C13.2652165,2 13.5195704,2.10535684 13.7071068,2.29289322 L13.7071068,2.29289322 L21.2928932,9.87867966 C22.4644661,11.0502525 22.4644661,12.9497475 21.2928932,14.1213203 L21.2928932,14.1213203 L14.1213203,21.2928932 C12.9497475,22.4644661 11.0502525,22.4644661 9.87867966,21.2928932 L9.87867966,21.2928932 L2.29289322,13.7071068 C2.10535684,13.5195704 2,13.2652165 2,13 L2,13 L2,5 C2,3.34314575 3.34314575,2 5,2 L5,2 Z M15.1616337,9.25016214 C14.7475097,8.8847586 14.1155778,8.92425435 13.7501742,9.33837836 L13.7501742,9.33837836 L10.9700121,12.488 L10.2498499,11.6717117 L10.1610152,11.5828086 C9.78851489,11.2539073 9.22065875,11.2461999 8.83839043,11.5834955 C8.42426642,11.948899 8.38477067,12.580831 8.75017421,12.994955 L8.75017421,12.994955 L10.2207624,14.6616216 L10.3105198,14.7513955 C10.7177952,15.1104909 11.3507811,15.0805663 11.7204382,14.6616216 L11.7204382,14.6616216 L15.2498499,10.6616216 L15.327,10.5624086 C15.6069605,10.1518544 15.543902,9.58745772 15.1616337,9.25016214 Z"/>
</svg>

<svg xmlns="http://www.w3.org/2000/svg" viewBox="0 0 24 24">
  <path d="M13 2a1 1 0 0 1 .7.3l7.6 7.58a3 3 0 0 1 0 4.24l-7.18 7.17a3 3 0 0 1-4.24 0l-7.59-7.58A1 1 0 0 1 2 13V5a3 3 0 0 1 3-3zm2.16 7.25a1 1 0 0 0-1.41.09l-2.78 3.15-.72-.82-.09-.09A1 1 0 0 0 8.75 13l1.47 1.67.1.1a1 1 0 0 0 1.4-.1l3.53-4 .08-.1a1 1 0 0 0-.17-1.31z"/>
</svg>
